X:1
T:While Shepherds Watched Their Flocks by Night
T:While Shepherds Watched Their Flocks by Night
T:William Billings (1746-1800)
T:Arranged for Unison Voices and C Instrument
T:Nahum Tate, 1700
T:This Arrangement is in the Public Domain
T:This Arrangement is in the Public Domain
C:William Billings (1746-1800)
Z:This Arrangement is in the Public Domain
%%score 1 2 { ( 3 5 ) | ( 4 6 ) }
L:1/8
Q:1/2=92
M:3/2
K:C
V:1 treble+8 nm="Soprano\nRecorder"
V:2 treble nm="Voice"
V:3 treble nm="Piano"
V:5 treble 
V:4 bass 
V:6 bass 
V:1
 z4 | z12 | z12 | z12 | z12 | z12 | z12 | z12 | z12 | z12 | z12 | z12 | z12 | z12 | z12 || %15
[M:2/2] z4 | G4 c2 (cB) | A2 A2 G2 (AB) | c2 c2 c2 G2 | A2 (dc B2) (AB) | c2 (ef) (gf) (ed) | %21
 c4 G4 | c2 G2 E2 C2 | E2 G2 c2 (BA) | (G4 F2 E2 | A4) G2 F2 | (G4 A2 B2 | c4) B2 A2 | G4 F4 | %29
 (E3 G F2 E2) | D8 |[M:3/2] C8 |] %32
V:2
 G4 | c8 B4 | (c4 B2 A2) (G2 F2) | (E4 F2 E2) (D2 C2) | G8 G4 | (E4 F4) G4 | (c2 B2) A8 | G8 G4 | %8
w: 1. While|shep- herds|watched _ _ their _|flocks _ _ by _|night, All|seat- * ted|on _ the|ground. The|
w: 2. "To|you, in|Da- * * vid's _|town, _ _ this _|day, Is|born _ of|Da- * vid's|line A|
w: 3. "The|heav'n- ly|Babe _ _ you _|there _ _ shal _|find To|hu- * man|view _ dis-|played, All|
w: 4. Thus|spake the|ser- * * aph,— _|And _ _ forth- *|with Ap-|peared _ a|shin- * ing|throng Of|
w: 5. "All|glo- ry|be _ _ to _|God _ _ on _|high, And|to _ the|earth _ be|peace: Good|
 (G4 c4) B4 | (c4 B2 A2) G4 | (E4 F4) G4 | (A4 B4) c4 | (G4 F4) E4 | (F2 E2) D8 | C12 || %15
w: an- * gel|of _ _ the|Lord _ came|down _ and|glo- * ry|shone _ a-|round.|
w: Sav- * ior,|who _ _ is|Christ _ the|Lord; _ And|this _ shall|be _ the|sign.|
w: mean- * ly|wrapped _ _ in|swad- * dling|clothes _ And|in _ a|man- * ger|laid."|
w: an- * gels|prais- * * ing|God, _ and|thus _ Ad-|dressed _ their|joy- * ful|song:|
w: will _ hence-|forth _ _ from|heav'n _ to|men _ Be-|gin _ and|nev- * er|cease."|
[M:2/2] z4 | z4 G4 | c2 c2 c2 (BA) | (GF) (ED) C2 E2 | F2 G2 A2 B2 | c6 G2 | c2 G2 E2 C2 | %22
w: |The|an- gel of the _|Lord _ came _ down, and|glo- ry shone a-|round. The|an- gel of the|
w: |||||||
w: |||||||
w: |||||||
w: |||||||
 E2 G2 c2 (BA) | G2 G2 G2 G2 | (c3 B A2 G2 | A2 F2 G2) (AB) | (c3 B c2 BA | G4) G2 G2 | %28
w: Lord came down, and _|glo- ry shone and|glo- * * *|* * ry, and _|glo- * * * *|* ry, and|
w: ||||||
w: ||||||
w: ||||||
w: ||||||
 (G2 cB) A4 | (G2 E2 A4) | G8 |[M:3/2] G8 |] %32
w: glo- * * ry|shone _ _|a-|round.|
w: ||||
w: ||||
w: ||||
w: ||||
V:3
 [EG]4 | [EGc]8 [DGB]4 | ([EGc]4 B2 A2) (G2 F2) | (E4 F2 E2) D2 C2 | [B,DG]8 [B,DG]4 | (E4 F4) G4 | %6
 (c2 B2) A8 | G8 G4 | (G4 [Gc]4) B4 | (c4 B2 A2) G4 | (E4 F4) G4 | (A4 B4) c4 | (G4 F4) E4 | %13
 ([DF]2 [CE]2) [B,D]8 | C12 ||[M:2/2] z4 | z4 G4 | c2 c2 c2 BA | (GF) (ED) C2 E2 | %19
 F2 [EG]2 [DA]2 [DB]2 | c6 G2 | c2 G2 E2 C2 | E2 G2 c2 (BA) | G2 G2 G2 [DG]2 | (c3 B A2 G2 | %25
 A2 F2 G2) (AB) | (c3 B c2 BA | G4) G2 G2 | (G2 cB) A4 | (G2 E2 A4) | G8 |[M:3/2] G8 |] %32
V:4
 C,4 | C,8 G,,4 | (C,4 G,2 F,2) (E,2 D,2) | (C,4 D,2 C,2) (B,,2 A,,2) | G,,8 G,,4 | (C,4 D,4) E,4 | %6
 C,4 D,8 | G,,8 G,,4 | C,8 G,4 | (F,2 A,2 G,2 F,2) E,4 | (C,4 D,4) E,4 | (F,4 G,4) F,4 | %12
 (E,4 D,4) C,4 | F,,4 G,,8 | C,12 ||[M:2/2] G,,4 | C,2 C,2 C,2 E,2 | F,2 F,2 E,2 D,2 | %18
 [C,E,]2 [C,E,]2 [C,E,]2 [C,E,]2 | D,2 E,2 F,2 G,2 | C,8 | [C,E,]8 | [C,E,]8 | [C,E,]6 G,,2 | %24
 (C,4 D,2 E,2 | F,4) E,2 D,2 | (C,2 E,2 F,2 G,2 | C,4) G,,2 G,,2 | (C,2 E,2) D,4 | (C,4 F,,4) | %30
 G,,8 |[M:3/2] C,8 |] %32
V:5
 x4 | x12 | x4 D4 C4 | C3 B, A,4 x4 | x12 | C3 B, A,4 C4 | [EG]4 [D^F]8 | D8 D4 | E8 D4 | %9
 A4 D4 E4 | C3 B, A,4 C4 | [CF]4 [EG]4 [FA]4 | B,3 C D4 [G,E]2 C2 | A,4 G,8 | [E,G,]12 || %15
[M:2/2] x4 | x8 | x8 | x8 | x8 | x8 | x8 | x8 | x8 | E4 D2 C2 | C4 C2 D2 | E2 C2 F2 D2 | E4 D2 D2 | %28
 E2 C2 (3F2 E2 D2 | C8 | [B,D]8 |[M:3/2] [CE]8 |] %32
V:6
 x4 | x12 | x12 | x12 | x12 | x12 | x12 | G,8 x4 | x12 | x12 | x12 | x12 | x12 | x12 | x12 || %15
[M:2/2] x4 | x8 | x8 | x8 | x8 | x8 | x8 | x8 | x8 | x8 | x8 | x8 | x8 | x8 | x8 | x8 | %31
[M:3/2] x8 |] %32

